outputs/icons/communication/person_search_sharp.svg

<svg xmlns="http://www.w3.org/2000/svg" width="1200" height="1200" fill="none"><g fill="#000" clip-path="url(#a)"><path d="M500 600c110.455 0 200-89.545 200-200 0-110.457-89.545-200-200-200-110.457 0-200 89.543-200 200 0 110.455 89.543 200 200 200M517.5 700.5C381 695.5 100 763.5 100 900v100h477c-123.5-138-61.5-294.5-59.5-299.5"/><path fill-rule="evenodd" d="M1000 800c0 37-10.5 71.5-28.5 101l128.5 128.5-70.5 70.5L901 971.5c-29.5 17.5-64 28.5-101 28.5-110.5 0-200-89.5-200-200s89.5-200 200-200 200 89.5 200 200m-300 0c0 55 45 100 100 100s100-45 100-100-45-100-100-100-100 45-100 100"/></g><defs><clipPath id="a"><path fill="#fff" d="M0 0h1200v1200H0z"/></clipPath></defs></svg>

<svg width="1200" height="1200" viewBox="0 0 1200 1200" fill="none" xmlns="http://www.w3.org/2000/svg"><g clip-path="url(#clip0_124_703)"><path d="M500 600C610.455 600 700 510.455 700 400C700 289.543 610.455 200 500 200C389.543 200 300 289.543 300 400C300 510.455 389.543 600 500 600Z" fill="black"/><path d="M517.5 700.5C381 695.5 100 763.5 100 900V1000H577C453.5 862 515.5 705.5 517.5 700.5Z" fill="black"/><path fill-rule="evenodd" d="M1000 800C1000 837 989.5 871.5 971.5 901L1100 1029.5L1029.5 1100L901 971.5C871.5 989 837 1000 800 1000C689.5 1000 600 910.5 600 800C600 689.5 689.5 600 800 600C910.5 600 1000 689.5 1000 800ZM700 800C700 855 745 900 800 900C855 900 900 855 900 800C900 745 855 700 800 700C745 700 700 745 700 800Z" fill="black"/></g><defs><clipPath id="clip0_124_703"><path width="24" fill="white" d="M0 0H1200V1200H0V0z"/></clipPath></defs></svg>
